material-icons/material-design-light/scalable/applications/google-translate.svg

<?xml version="1.0" encoding="UTF-8" standalone="no"?>
<svg id="svg2" xmlns:rdf="http://www.w3.org/1999/02/22-rdf-syntax-ns#" xmlns="http://www.w3.org/2000/svg" xml:space="preserve" height="24" width="24" version="1.1" enable-background="new 0 0 24.00 24.00" xmlns:cc="http://creativecommons.org/ns#" xmlns:dc="http://purl.org/dc/elements/1.1/" viewBox="0 0 24.00 24.00"><metadata id="metadata10"><rdf:RDF><cc:Work rdf:about=""><dc:format>image/svg+xml</dc:format><dc:type rdf:resource="http://purl.org/dc/dcmitype/StillImage"/><dc:title/></cc:Work></rdf:RDF></metadata><path id="path4" d="m3 1c-1.108 0-2 0.892-2 2v14c0 1.108 0.892 2 2 2h12l-6-18h-6zm9.344 4l0.656 2h8v14h-8.625l0.656 2h7.969c1.108 0 2-0.892 2-2v-14c0-1.108-0.892-2-2-2h-8.656zm-5.2815 0.9062c1.0992 0 2.0245 0.3996 2.7187 1.0938l-1.125 1.0312c-0.2892-0.2891-0.7838-0.625-1.5937-0.625-1.3884 0-2.5 1.1429-2.5 2.5313 0 1.3885 1.1116 2.5625 2.5 2.5625 1.6198 0 2.1968-1.172 2.3125-1.75h-2.3125v-1.375h3.8125c0.058 0.2314 0.063 0.3983 0.063 0.687 0 2.315-1.5614 3.938-3.8755 3.938-2.2562 0-4.0625-1.806-4.0625-4.0625 0-2.2562 1.8063-4.0313 4.0625-4.0313zm8.9375 4.0938v1h-1.656l0.312 1h3.344c-0.266 0.612-0.372 1.173-1.188 2.125-0.402-0.466-0.724-0.877-0.812-1.125h-1c0.118 0.428 0.617 1.099 1.219 1.781-0.134 0.131-0.308 0.295-0.469 0.438l0.281 0.843c0.253-0.224 0.503-0.453 0.75-0.687 1.019 1.078 2.094 2.063 2.094 2.063l0.563-0.594s-1.068-1.059-2.032-2.094c0.629-0.702 1.191-1.549 1.594-2.75h1v-1h-3v-1h-1z" stroke-width="1.3333"/></svg>

﻿<?xml version="1.0" encoding="utf-8"?>
<!DOCTYPE svg PUBLIC "-//W3C//DTD SVG 1.1//EN" "http://www.w3.org/Graphics/SVG/1.1/DTD/svg11.dtd">
<svg xmlns="http://www.w3.org/2000/svg" xmlns:xlink="http://www.w3.org/1999/xlink" version="1.1" baseProfile="full" width="24" height="24" viewBox="0 0 24.00 24.00" enable-background="new 0 0 24.00 24.00" xml:space="preserve">
	<path fill="#161616" fill-opacity="1" stroke-width="1.33333" stroke-linejoin="miter" d="M 3,1C 1.892,1 1,1.892 1,3L 1,17C 1,18.108 1.892,19 3,19L 15,19L 9,1L 3,1 Z M 12.3438,5L 13,7L 21,7L 21,21L 12.375,21L 13.0313,23L 21,23C 22.108,23 23,22.108 23,21L 23,7C 23,5.892 22.108,5 21,5L 12.3438,5 Z M 7.0625,5.9062C 8.16167,5.9062 9.08704,6.3058 9.78125,7L 8.65625,8.0312C 8.36699,7.7421 7.87242,7.4062 7.0625,7.4062C 5.67407,7.4062 4.5625,8.5491 4.5625,9.9375C 4.5625,11.3259 5.67407,12.5 7.0625,12.5C 8.68233,12.5 9.2593,11.3285 9.375,10.75L 7.0625,10.75L 7.0625,9.375L 10.875,9.375C 10.9328,9.6064 10.9375,9.7733 10.9375,10.0625C 10.9375,12.3766 9.37655,14 7.0625,14C 4.8063,14 3,12.1937 3,9.9375C 3,7.6813 4.8063,5.9062 7.0625,5.9062 Z M 16,10L 16,11L 14.3438,11L 14.6563,12L 18,12C 17.7335,12.6121 17.6276,13.1731 16.8125,14.125C 16.4101,13.6594 16.0883,13.2485 16,13L 15,13C 15.1185,13.4277 15.6166,14.0987 16.2188,14.7812C 16.0853,14.9124 15.9114,15.0762 15.75,15.2187L 16.0313,16.0625C 16.2839,15.8376 16.5342,15.6091 16.7813,15.375C 17.7995,16.4529 18.875,17.4375 18.875,17.4375L 19.4375,16.8437C 19.4375,16.8437 18.3704,15.7851 17.4063,14.75C 18.0353,14.0476 18.597,13.2014 19,12L 20,12L 20,11L 17,11L 17,10L 16,10 Z "/>
</svg>
